src/cherish/Images/file-save-24px.svg

<?xml version="1.0" encoding="UTF-8" standalone="no"?>
<!-- Generator: Adobe Illustrator 19.2.0, SVG Export Plug-In . SVG Version: 6.00 Build 0)  -->

<svg
   xmlns:dc="http://purl.org/dc/elements/1.1/"
   xmlns:cc="http://creativecommons.org/ns#"
   xmlns:rdf="http://www.w3.org/1999/02/22-rdf-syntax-ns#"
   xmlns:svg="http://www.w3.org/2000/svg"
   xmlns="http://www.w3.org/2000/svg"
   xmlns:sodipodi="http://sodipodi.sourceforge.net/DTD/sodipodi-0.dtd"
   xmlns:inkscape="http://www.inkscape.org/namespaces/inkscape"
   version="1.1"
   id="Layer_1"
   x="0px"
   y="0px"
   viewBox="0 0 18 18"
   style="enable-background:new 0 0 18 18;"
   xml:space="preserve"
   inkscape:version="0.91 r13725"
   sodipodi:docname="file-save-24px.svg"><metadata
     id="metadata15"><rdf:RDF><cc:Work
         rdf:about=""><dc:format>image/svg+xml</dc:format><dc:type
           rdf:resource="http://purl.org/dc/dcmitype/StillImage" /></cc:Work></rdf:RDF></metadata><defs
     id="defs13" /><sodipodi:namedview
     pagecolor="#ffffff"
     bordercolor="#666666"
     borderopacity="1"
     objecttolerance="10"
     gridtolerance="10"
     guidetolerance="10"
     inkscape:pageopacity="0"
     inkscape:pageshadow="2"
     inkscape:window-width="1536"
     inkscape:window-height="801"
     id="namedview11"
     showgrid="false"
     inkscape:zoom="13.111111"
     inkscape:cx="-4.0042374"
     inkscape:cy="8.9999999"
     inkscape:window-x="-8"
     inkscape:window-y="-8"
     inkscape:window-maximized="1"
     inkscape:current-layer="Layer_1" /><style
     type="text/css"
     id="style3">
	.st0{fill:#939393;}
</style><path
     d="M 2.0996094 0 C 1.7996094 -7.4014868e-017 1.5 0.29960938 1.5 0.59960938 L 1.5 16.199219 C 1.5 16.299219 1.5992186 16.499609 1.6992188 16.599609 L 2.3007812 17.300781 L 3 18 L 15.900391 18 C 16.200391 18 16.5 17.700391 16.5 17.400391 L 16.5 0.59960938 C 16.5 0.29960938 16.200391 0 15.900391 0 L 2.0996094 0 z M 4.5996094 1.1992188 L 13.400391 1.1992188 C 13.700391 1.1992187 14 1.4007812 14 1.8007812 L 14 7.1992188 C 14 7.4992187 13.700391 7.8007812 13.400391 7.8007812 L 4.5996094 7.8007812 C 4.2996094 7.7007813 4 7.4996094 4 7.0996094 L 4 1.8007812 C 4 1.5007812 4.2996094 1.1992187 4.5996094 1.1992188 z M 7 11.599609 L 11 11.599609 C 11.3 11.599609 11.599609 11.899219 11.599609 12.199219 L 11.599609 16.300781 C 11.599609 16.600781 11.3 16.900391 11 16.900391 L 7 16.900391 C 6.7 16.900391 6.4003906 16.600781 6.4003906 16.300781 L 6.4003906 12.199219 C 6.4003906 11.899219 6.7 11.599609 7 11.599609 z "
     id="path5" /></svg>

<?xml version="1.0" encoding="utf-8"?>
<!-- Generator: Adobe Illustrator 19.2.0, SVG Export Plug-In . SVG Version: 6.00 Build 0)  -->
<svg version="1.1" id="Layer_1" xmlns="http://www.w3.org/2000/svg" xmlns:xlink="http://www.w3.org/1999/xlink" x="0px" y="0px"
	 viewBox="0 0 18 18" style="enable-background:new 0 0 18 18;" xml:space="preserve">
<style type="text/css">
	.st0{fill:#939393;}
</style>
<path d="M16.5,17.4c0,0.3-0.3,0.6-0.6,0.6H3l-0.7-0.7l-0.6-0.7c-0.1-0.1-0.2-0.3-0.2-0.4V0.6C1.5,0.3,1.8,0,2.1,0h13.8
	c0.3,0,0.6,0.3,0.6,0.6V17.4z"/>
<path class="st0" d="M14,1.8v5.4c0,0.3-0.3,0.6-0.6,0.6H4.6C4.3,7.7,4,7.5,4,7.1V1.8c0-0.3,0.3-0.6,0.6-0.6h8.8
	C13.7,1.2,14,1.4,14,1.8z"/>
<path class="st0" d="M11.6,12.2v4.1c0,0.3-0.3,0.6-0.6,0.6H7c-0.3,0-0.6-0.3-0.6-0.6v-4.1c0-0.3,0.3-0.6,0.6-0.6H11
	C11.3,11.6,11.6,11.9,11.6,12.2z"/>
</svg>
